media/images/chapters/play.svg

<svg width="24" height="24" viewBox="0 0 24 24" fill="none" xmlns="http://www.w3.org/2000/svg">
<g opacity="0.8">
<path d="M5 4.98963C5 4.01847 5 3.53289 5.20249 3.26522C5.37889 3.03203 5.64852 2.88773 5.9404 2.8703C6.27544 2.8503 6.67946 3.11965 7.48752 3.65835L18.0031 10.6687C18.6708 11.1139 19.0046 11.3364 19.1209 11.6169C19.2227 11.8622 19.2227 12.1378 19.1209 12.3831C19.0046 12.6636 18.6708 12.8862 18.0031 13.3313L7.48752 20.3417C6.67946 20.8804 6.27544 21.1497 5.9404 21.1297C5.64852 21.1123 5.37889 20.968 5.20249 20.7348C5 20.4671 5 19.9815 5 19.0104V4.98963Z" fill="white"/>
</g>
</svg>

<svg width="24" height="24" fill="none" xmlns="http://www.w3.org/2000/svg"><path d="M5 4.99c0-.972 0-1.457.202-1.725a1 1 0 01.738-.395c.335-.02.74.25 1.548.788l10.515 7.01c.668.446 1.002.668 1.118.949a1 1 0 010 .766c-.116.28-.45.503-1.118.948l-10.515 7.01c-.809.54-1.213.809-1.548.789a1 1 0 01-.738-.395C5 20.467 5 19.982 5 19.01V4.99z" fill="#fff" opacity=".8"/></svg>
